X:0764
M:C
L:1/8
Q:1/4=120
K:G
e/f/|gdg>a  b>ga>b|g<d`g>b ad`fa |g`dg>a b>g`ab |Tg>ed>c BGG
e/f/|gdg>a  b>ga>b|gd``g>b a>dfa |g>ba>f g>dTc>B| Ag`fa  gGG|]

